X:17
T: SCHWARZBRAUNES MAEGDELEIN
N: E0632
O: Europa, Mitteleuropa, Deutschland, Hessen, Darmstadt
R: Liebes - Lied
M: 2/4
L: 1/16
K: A
 | A4A2B2 | c3cc2
c2 | e2d2B2G2 | A4z2
c2 | B3AG2A2 | B3cB2
e2 | B3AG2A2 | B3cB2
E2 | A4A2B2 | c3cc2
c2 | e2d2B2G2 | A4z4

@@@ Tune index: 4330
